X:586
T: GESTERN BEI MONDENSCHEIN
N: E0547
O: Europa, Mitteleuropa, Deutschland; Oesterreich - Schlesien
R: Liebes - Lied
M: 3/4
L: 1/8
K: Eb
 | E2G2A2 | B3cB2
A2G2F2 | G4E2
E2G2A2 | B3cB2
A2G2F2 | G4E2
F2F2G2 | A3BA2
G2G2A2 | B3cB2
A2G2F2 | F4E2

